X:73
T:Ping the Kvetch
C:Tradformer + Sturm
M:4/4
K:Dmaj
ABAF Adfd|AFGE FDFA|dBAF A=cec|gefd edBd|
~A3F Adfd|AFGE FDFA|dBAF A=cec|1gefd edBA:|2gefd edce||
|:~f3b- bfaf|edfd edBd|~f3b- bfaf|gefd edBA|~f3b- bfaf|
edfd edBe|dBAF A=cec|1gefd edce:|2gefd edBA|

